svg/furkot/freepik/historymuseum.svg

<svg viewBox="0 0 512 512" xmlns="http://www.w3.org/2000/svg"><path d="m467.852 220.606v-28.656l-4.129-1.635c-1.304-.512-29.795-11.528-69.169-13.345v13.081c28.556 1.404 51.266 7.977 60.218 10.95v265.646c-18.449-7.416-39.689-11.165-63.208-11.165-57.624 0-112.507 22.098-129.024 29.349v-105.538l7.68 8.473v-75.644h-19.67v75.644l7.68-8.473v105.67c-16.731-6.92-74.323-28.821-132.014-28.821-22.809 0-42.991 3.502-60.201 10.406v-265.58c10.042-3.353 37.392-11.264 71.102-11.264 2.411 0 4.757.198 7.168.281v-13.031c-2.411-.066-4.757-.281-7.168-.281-44.94 0-78.617 13.081-80.004 13.626l-4.129 1.635v26.541c-13.593 2.544-22.049 7.119-22.049 14.535v273.54h201.43c6.97 6.21 17.144 10.19 28.557 10.19 11.412 0 21.603-3.964 28.556-10.19h196.36s0-259.948 0-273.54c0-6.045-6.854-9.976-17.986-12.404z"/><path d="m404.728 95.893h-276.332v17.424h27.037v141.197h27.021v-141.197h34.882v141.197h27.004v-141.197h45.336v141.197h27.021v-141.197h34.865v141.197h27.004v-141.197h26.162zm-135.961-95.893-154.277 87.816h305.928zm135.961 259.749h-10.901-250.104-12.684v20.018h-9.596v20.083h294.648v-20.083h-11.363v-10.009z"/></svg>

<svg xmlns="http://www.w3.org/2000/svg" viewBox="0 0 512 512"><path d="M467.852 220.606V191.95L463.723 190.315C462.419 189.803 433.928 178.787 394.554 176.97V190.051C423.11 191.455 445.82 198.028 454.772 201.001V466.647C436.323 459.231 415.083 455.482 391.564 455.482 333.94 455.482 279.057 477.58 262.54 484.831V379.293L270.22 387.766V312.122H250.55V387.766L258.23 379.293V484.963C241.499 478.043 183.907 456.142 126.216 456.142 103.407 456.142 83.225 459.644 66.015 466.548V200.968C76.057 197.615 103.407 189.704 137.117 189.704 139.528 189.704 141.874 189.902 144.285 189.985V176.954C141.874 176.888 139.528 176.673 137.117 176.673 92.177 176.673 58.5 189.754 57.113 190.299L52.984 191.934V218.475C39.391 221.019 30.935 225.594 30.935 233.01 30.935 271.69 30.935 506.55 30.935 506.55H232.365C239.335 512.76 249.509 516.74 260.922 516.74 272.334 516.74 282.525 512.776 289.478 506.55H485.838C485.838 506.55 485.838 246.602 485.838 233.01 485.838 226.965 478.984 223.034 467.852 220.606Z"/><path d="M404.728 95.893L128.396 95.893 128.396 113.317 155.433 113.317 155.433 254.514 182.454 254.514 182.454 113.317 217.336 113.317 217.336 254.514 244.34 254.514 244.34 113.317 289.676 113.317 289.676 254.514 316.697 254.514 316.697 113.317 351.562 113.317 351.562 254.514 378.566 254.514 378.566 113.317 404.728 113.317ZM268.767 0L114.49 87.816 420.418 87.816ZM404.728 259.749L393.827 259.749 143.723 259.749 131.039 259.749 131.039 279.767 121.443 279.767 121.443 299.85 416.091 299.85 416.091 279.767 404.728 279.767 404.728 269.758Z"/></svg>
